packages/components/icons/assets/SatisfiedFill.svg

<svg viewBox="0 0 24 24" xmlns="http://www.w3.org/2000/svg" data-title="SatisfiedFill" fill="currentColor" stroke="none">
  <path d="M12 2C6.47154 2 2 6.47154 2 12C2 17.5285 6.47154 22 12 22C17.5285 22 22 17.5285 22 12C22 6.47154 17.5285 2 12 2ZM6.47155 13.7073C6.30894 13.2195 6.63415 12.6504 7.12195 12.4878C7.60976 12.3252 8.17886 12.6504 8.34146 13.1382C8.91057 15.0894 11.1057 16.3089 13.0569 15.8211C14.2764 15.3333 15.252 14.3577 15.5772 13.1382C15.7398 12.6504 16.2276 12.3252 16.7967 12.4878C17.2846 12.6504 17.6098 13.1382 17.4472 13.7073C16.9594 15.5772 15.4146 17.0407 13.626 17.6911H13.5447C10.6179 18.5041 7.28455 16.7154 6.47155 13.7073ZM8.6664 6.87803C9.3168 6.87803 9.88618 7.12195 10.374 7.60976C10.8618 8.09756 11.1057 8.66667 11.1057 9.31707C11.1057 9.88618 10.6992 10.2927 10.1301 10.2927C9.56098 10.2927 9.15447 9.88618 9.15447 9.31707C9.15447 9.23577 9.07317 9.07317 9.07317 8.99187C9.07317 8.91057 8.7477 8.82925 8.6664 8.82925C8.5851 8.82925 8.42276 8.91057 8.34146 8.99187C8.26016 9.07317 8.25989 9.15445 8.25989 9.23575C8.25989 9.80486 7.85339 10.2114 7.28428 10.2114C6.71518 10.2114 6.30868 9.80486 6.30868 9.23575C6.30868 8.58535 6.55285 8.01626 7.04065 7.52846C7.52846 7.04065 8.01599 6.87803 8.6664 6.87803ZM16.7154 10.2114C16.1463 10.2114 15.7398 9.80488 15.7398 9.23577C15.7398 9.15447 15.6585 8.99187 15.6585 8.91057C15.6585 8.82927 15.4959 8.82927 15.3333 8.82927C15.252 8.82927 15.0894 8.91057 15.0081 8.91057C14.9268 8.99187 14.9268 9.07317 14.9268 9.23577C14.9268 9.80488 14.5203 10.2114 13.9512 10.2114C13.3821 10.2114 12.9756 9.80488 12.9756 9.23577C12.9756 8.58537 13.2195 8.01626 13.7073 7.52846C14.1138 7.12195 14.7642 6.79675 15.4146 6.79675C16.065 6.79675 16.6341 7.04065 17.122 7.52846C17.6098 8.01626 17.8537 8.58537 17.8537 9.23577C17.6911 9.80488 17.2846 10.2114 16.7154 10.2114Z"/>
</svg>

<svg viewBox="0 0 24 24" xmlns="http://www.w3.org/2000/svg" data-title="SatisfiedFill" fill="currentColor" stroke="none">
  <path d="m12,2C6.47,2,2,6.47,2,12s4.47,10,10,10,10-4.47,10-10S17.53,2,12,2Zm-5.53,11.71c-.16-.49.16-1.06.65-1.22.49-.16,1.06.16,1.22.65.57,1.95,2.76,3.17,4.72,2.68,1.22-.49,2.2-1.46,2.52-2.68.16-.49.65-.81,1.22-.65.49.16.81.65.65,1.22-.49,1.87-2.03,3.33-3.82,3.98h-.08c-2.93.81-6.26-.98-7.07-3.98Zm2.19-6.83c.65,0,1.22.24,1.71.73.49.49.73,1.06.73,1.71,0,.57-.41.98-.98.98s-.98-.41-.98-.98c0-.08-.08-.24-.08-.33s-.33-.16-.41-.16-.24.08-.32.16-.08.16-.08.24c0,.57-.41.98-.98.98s-.98-.41-.98-.98c0-.65.24-1.22.73-1.71s.98-.65,1.63-.65Zm8.05,3.33c-.57,0-.98-.41-.98-.98,0-.08-.08-.24-.08-.33s-.16-.08-.33-.08c-.08,0-.24.08-.33.08-.08.08-.08.16-.08.33,0,.57-.41.98-.98.98s-.98-.41-.98-.98c0-.65.24-1.22.73-1.71.41-.41,1.06-.73,1.71-.73s1.22.24,1.71.73c.49.49.73,1.06.73,1.71-.16.57-.57.98-1.14.98Z"/>
</svg>
